svgs/light/arrows-up-down-left-right.svg

<svg xmlns="http://www.w3.org/2000/svg" viewBox="0 0 512 512"><!--! Font Awesome Pro 6.3.0 by @fontawesome - https://fontawesome.com License - https://fontawesome.com/license (Commercial License) Copyright 2023 Fonticons, Inc. --><path d="M512 255.1c0 4.094-1.562 8.222-4.688 11.35l-80 80C424.2 350.4 420.1 352 416 352c-9.139 0-16-7.473-16-16c0-4.094 1.562-8.188 4.688-11.31L457.4 272H272v185.4l52.69-52.69C327.8 401.6 331.9 400 336 400c9.139 0 16 7.473 16 16c0 4.094-1.562 8.188-4.688 11.31l-80 80C264.2 510.4 260.1 512 256 512s-8.188-1.562-11.31-4.688l-80-80C161.6 424.2 160 420.1 160 416c0-8.527 6.865-16 16-16c4.094 0 8.188 1.562 11.31 4.688L240 457.4V272H54.63l52.69 52.69C110.4 327.8 112 331.9 112 336C112 344.5 105.1 352 96 352c-4.094 0-8.188-1.562-11.31-4.688l-80-80C1.563 264.2 0 260.1 0 255.1s1.562-8.153 4.688-11.28l80-80C87.81 161.6 91.91 160 96 160c9.139 0 16 7.473 16 16c0 4.094-1.562 8.188-4.688 11.31L54.63 240H240V54.63L187.3 107.3C184.2 110.4 180.1 112 176 112C166.9 112 160 104.5 160 96c0-4.094 1.562-8.188 4.688-11.31l80-80C247.8 1.562 251.9 0 256 0s8.188 1.562 11.31 4.688l80 80C350.4 87.81 352 91.91 352 96c0 8.527-6.865 16-16 16c-4.094 0-8.188-1.562-11.31-4.688L272 54.63V240h185.4l-52.69-52.69C401.6 184.2 400 180.1 400 176C400 167.5 406.9 160 416 160c4.094 0 8.188 1.562 11.31 4.688l80 80C510.4 247.8 512 251.9 512 255.1z"/></svg>

<svg xmlns="http://www.w3.org/2000/svg" viewBox="0 0 512 512"><!-- Font Awesome Pro 6.0.0-alpha2 by @fontawesome - https://fontawesome.com License - https://fontawesome.com/license (Commercial License) --><path d="M512 256C512 260.094 510.438 264.188 507.312 267.312L427.312 347.312C424.188 350.438 420.094 352 416 352C406.861 352 400 344.527 400 336C400 331.906 401.562 327.812 404.688 324.688L457.375 272H272V457.375L324.688 404.688C327.812 401.562 331.906 400 336 400C345.139 400 352 407.473 352 416C352 420.094 350.438 424.188 347.312 427.312L267.312 507.312C264.188 510.438 260.094 512 256 512S247.812 510.438 244.688 507.312L164.688 427.312C161.562 424.188 160 420.094 160 416C160 407.473 166.865 400 176 400C180.094 400 184.188 401.562 187.312 404.688L240 457.375V272H54.625L107.312 324.688C110.438 327.812 112 331.906 112 336C112 344.527 105.135 352 96 352C91.906 352 87.812 350.438 84.688 347.312L4.688 267.312C1.562 264.188 0 260.094 0 256S1.562 247.812 4.688 244.688L84.688 164.688C87.812 161.562 91.906 160 96 160C105.139 160 112 167.473 112 176C112 180.094 110.438 184.188 107.312 187.312L54.625 240H240V54.625L187.312 107.312C184.188 110.438 180.094 112 176 112C166.861 112 160 104.527 160 96C160 91.906 161.562 87.812 164.688 84.688L244.688 4.688C247.812 1.562 251.906 0 256 0S264.188 1.562 267.312 4.688L347.312 84.688C350.438 87.812 352 91.906 352 96C352 104.527 345.135 112 336 112C331.906 112 327.812 110.438 324.688 107.312L272 54.625V240H457.375L404.688 187.312C401.562 184.188 400 180.094 400 176C400 167.473 406.865 160 416 160C420.094 160 424.188 161.562 427.312 164.688L507.312 244.688C510.438 247.812 512 251.906 512 256Z "></path></svg>
